app/assets/images/icons/active/book.svg

<?xml version="1.0" encoding="UTF-8" standalone="no"?>
<svg width="32px" height="232px" viewBox="0 0 32 232" version="1.1" xmlns="http://www.w3.org/2000/svg" xmlns:xlink="http://www.w3.org/1999/xlink" xmlns:sketch="http://www.bohemiancoding.com/sketch/ns">
    <title>book</title>
    <description>Created with Sketch (http://www.bohemiancoding.com/sketch)</description>
    <defs></defs>
    <g id="Graphics" stroke="none" stroke-width="1" fill="none" fill-rule="evenodd" sketch:type="MSPage">
        <path d="M28.211375,9.57692941 C28.871375,8.76139543 28.767375,8.15418792 28.636375,7.85502715 C28.490375,7.5361198 28.067375,7 26.837375,7 L16.062375,7 C14.442375,7 12.326375,7.93006418 11.245375,9.11979595 L4.486375,16.5405628 C4.383375,16.6541056 4.299375,16.7636992 4.223375,16.8663814 C3.462375,17.7312819 2.984375,18.8449893 2.984375,20.0752016 C2.984375,22.7943064 5.223375,25 7.976375,25 L16.508375,25 C18.073375,25 20.472375,24.8844825 21.557375,23.6937634 L28.313375,16.2739839 C29.017375,15.506829 29.171375,14.7100543 28.758375,14.1857825 C28.742375,14.1650485 27.449375,11.5673852 28.211375,9.57692941 C28.211375,9.57692941 27.449375,11.5673852 28.211375,9.57692941 L28.211375,9.57692941 L28.211375,9.57692941 Z M6.264375,19.2823762 L16.508375,19.2823762 C18.123375,19.2823762 20.236375,18.3513247 21.321375,17.1625802 L26.550375,11.4380451 C26.323375,11.9297351 26.402375,12.5102847 26.410375,12.5102847 C26.573375,13.335692 26.916375,14.5738029 27.098375,14.9104821 C27.063375,14.9608359 27.022375,15.0111897 26.965375,15.0743788 L20.209375,22.4951456 C19.462375,23.3185782 17.570375,23.209972 16.508375,23.209972 L7.976375,23.209972 C6.225375,23.209972 4.803375,21.8069771 4.803375,20.0752016 C4.803375,19.9972026 4.805375,19.9192036 4.807375,19.8570018 L4.887375,19.2823762 L6.264375,19.2823762 L6.264375,19.2823762 Z M6.264375,19.2823762" id="Imported-Layers" fill="#3B444F" sketch:type="MSShapeGroup"></path>
        <path d="M28.211375,49.5714294 C28.871375,48.7558954 28.767375,48.1486879 28.636375,47.8495272 C28.490375,47.5306198 28.067375,46.9945 26.837375,46.9945 L16.062375,46.9945 C14.442375,46.9945 12.326375,47.9245642 11.245375,49.114296 L4.486375,56.5350628 C4.383375,56.6486056 4.299375,56.7581992 4.223375,56.8608814 C3.462375,57.7257819 2.984375,58.8394893 2.984375,60.0697016 C2.984375,62.7888064 5.223375,64.9945 7.976375,64.9945 L16.508375,64.9945 C18.073375,64.9945 20.472375,64.8789825 21.557375,63.6882634 L28.313375,56.2684839 C29.017375,55.501329 29.171375,54.7045543 28.758375,54.1802825 C28.742375,54.1595485 27.449375,51.5618852 28.211375,49.5714294 C28.211375,49.5714294 27.449375,51.5618852 28.211375,49.5714294 L28.211375,49.5714294 L28.211375,49.5714294 Z M6.264375,59.2768762 L16.508375,59.2768762 C18.123375,59.2768762 20.236375,58.3458247 21.321375,57.1570802 L26.550375,51.4325451 C26.323375,51.9242351 26.402375,52.5047847 26.410375,52.5047847 C26.573375,53.330192 26.916375,54.5683029 27.098375,54.9049821 C27.063375,54.9553359 27.022375,55.0056897 26.965375,55.0688788 L20.209375,62.4896456 C19.462375,63.3130782 17.570375,63.204472 16.508375,63.204472 L7.976375,63.204472 C6.225375,63.204472 4.803375,61.8014771 4.803375,60.0697016 C4.803375,59.9917026 4.805375,59.9137036 4.807375,59.8515018 L4.887375,59.2768762 L6.264375,59.2768762 L6.264375,59.2768762 Z M6.264375,59.2768762" id="Imported-Layers-copy" fill="#67737B" sketch:type="MSShapeGroup"></path>
        <path d="M28.211375,89.5714294 C28.871375,88.7558954 28.767375,88.1486879 28.636375,87.8495272 C28.490375,87.5306198 28.067375,86.9945 26.837375,86.9945 L16.062375,86.9945 C14.442375,86.9945 12.326375,87.9245642 11.245375,89.114296 L4.486375,96.5350628 C4.383375,96.6486056 4.299375,96.7581992 4.223375,96.8608814 C3.462375,97.7257819 2.984375,98.8394893 2.984375,100.069702 C2.984375,102.788806 5.223375,104.9945 7.976375,104.9945 L16.508375,104.9945 C18.073375,104.9945 20.472375,104.878982 21.557375,103.688263 L28.313375,96.2684839 C29.017375,95.501329 29.171375,94.7045543 28.758375,94.1802825 C28.742375,94.1595485 27.449375,91.5618852 28.211375,89.5714294 C28.211375,89.5714294 27.449375,91.5618852 28.211375,89.5714294 L28.211375,89.5714294 L28.211375,89.5714294 Z M6.264375,99.2768762 L16.508375,99.2768762 C18.123375,99.2768762 20.236375,98.3458247 21.321375,97.1570802 L26.550375,91.4325451 C26.323375,91.9242351 26.402375,92.5047847 26.410375,92.5047847 C26.573375,93.330192 26.916375,94.5683029 27.098375,94.9049821 C27.063375,94.9553359 27.022375,95.0056897 26.965375,95.0688788 L20.209375,102.489646 C19.462375,103.313078 17.570375,103.204472 16.508375,103.204472 L7.976375,103.204472 C6.225375,103.204472 4.803375,101.801477 4.803375,100.069702 C4.803375,99.9917026 4.805375,99.9137036 4.807375,99.8515018 L4.887375,99.2768762 L6.264375,99.2768762 L6.264375,99.2768762 Z M6.264375,99.2768762" id="Imported-Layers-copy-2" fill="#FFFFFF" sketch:type="MSShapeGroup"></path>
        <path d="M28.211375,129.571429 C28.871375,128.755895 28.767375,128.148688 28.636375,127.849527 C28.490375,127.53062 28.067375,126.9945 26.837375,126.9945 L16.062375,126.9945 C14.442375,126.9945 12.326375,127.924564 11.245375,129.114296 L4.486375,136.535063 C4.383375,136.648606 4.299375,136.758199 4.223375,136.860881 C3.462375,137.725782 2.984375,138.839489 2.984375,140.069702 C2.984375,142.788806 5.223375,144.9945 7.976375,144.9945 L16.508375,144.9945 C18.073375,144.9945 20.472375,144.878982 21.557375,143.688263 L28.313375,136.268484 C29.017375,135.501329 29.171375,134.704554 28.758375,134.180282 C28.742375,134.159549 27.449375,131.561885 28.211375,129.571429 C28.211375,129.571429 27.449375,131.561885 28.211375,129.571429 L28.211375,129.571429 L28.211375,129.571429 Z M6.264375,139.276876 L16.508375,139.276876 C18.123375,139.276876 20.236375,138.345825 21.321375,137.15708 L26.550375,131.432545 C26.323375,131.924235 26.402375,132.504785 26.410375,132.504785 C26.573375,133.330192 26.916375,134.568303 27.098375,134.904982 C27.063375,134.955336 27.022375,135.00569 26.965375,135.068879 L20.209375,142.489646 C19.462375,143.313078 17.570375,143.204472 16.508375,143.204472 L7.976375,143.204472 C6.225375,143.204472 4.803375,141.801477 4.803375,140.069702 C4.803375,139.991703 4.805375,139.913704 4.807375,139.851502 L4.887375,139.276876 L6.264375,139.276876 L6.264375,139.276876 Z M6.264375,139.276876" id="Imported-Layers-copy-3" fill="#206FAC" sketch:type="MSShapeGroup"></path>
    </g>
</svg>

<svg width="32" height="232" viewBox="0 0 32 232" xmlns="http://www.w3.org/2000/svg" xmlns:sketch="http://www.bohemiancoding.com/sketch/ns"><title>book</title><g sketch:type="MSPage" fill="none"><path d="M28.211 9.577c.66-.816.556-1.423.425-1.722-.146-.319-.569-.855-1.799-.855h-10.775c-1.62 0-3.736.93-4.817 2.12l-6.759 7.421-.263.326c-.761.865-1.239 1.979-1.239 3.209 0 2.719 2.239 4.925 4.992 4.925h8.532c1.565 0 3.964-.116 5.049-1.306l6.756-7.42c.704-.767.858-1.564.445-2.088-.016-.021-1.309-2.618-.547-4.609zm-21.947 9.705h10.244c1.615 0 3.728-.931 4.813-2.12l5.229-5.725c-.227.492-.148 1.072-.14 1.072.163.825.506 2.064.688 2.4l-.133.164-6.756 7.421c-.747.823-2.639.715-3.701.715h-8.532c-1.751 0-3.173-1.403-3.173-3.135l.004-.218.08-.575h1.377zm0 0" fill="#3B444F" sketch:type="MSShapeGroup"/><path d="M28.211 49.571c.66-.816.556-1.423.425-1.722-.146-.319-.569-.855-1.799-.855h-10.775c-1.62 0-3.736.93-4.817 2.12l-6.759 7.421-.263.326c-.761.865-1.239 1.979-1.239 3.209 0 2.719 2.239 4.925 4.992 4.925h8.532c1.565 0 3.964-.116 5.049-1.306l6.756-7.42c.704-.767.858-1.564.445-2.088-.016-.021-1.309-2.618-.547-4.609zm-21.947 9.705h10.244c1.615 0 3.728-.931 4.813-2.12l5.229-5.725c-.227.492-.148 1.072-.14 1.072.163.825.506 2.064.688 2.4l-.133.164-6.756 7.421c-.747.823-2.639.715-3.701.715h-8.532c-1.751 0-3.173-1.403-3.173-3.135l.004-.218.08-.575h1.377zm0 0" fill="#67737B" sketch:type="MSShapeGroup"/><path d="M28.211 89.571c.66-.816.556-1.423.425-1.722-.146-.319-.569-.855-1.799-.855h-10.775c-1.62 0-3.736.93-4.817 2.12l-6.759 7.421-.263.326c-.761.865-1.239 1.979-1.239 3.209 0 2.719 2.239 4.925 4.992 4.925h8.532c1.565 0 3.964-.116 5.049-1.306l6.756-7.42c.704-.767.858-1.564.445-2.088-.016-.021-1.309-2.618-.547-4.609zm-21.947 9.705h10.244c1.615 0 3.728-.931 4.813-2.12l5.229-5.725c-.227.492-.148 1.072-.14 1.072.163.825.506 2.064.688 2.4l-.133.164-6.756 7.421c-.747.823-2.639.715-3.701.715h-8.532c-1.751 0-3.173-1.403-3.173-3.135l.004-.218.08-.575h1.377zm0 0" fill="#fff" sketch:type="MSShapeGroup"/><path d="M28.211 129.571c.66-.816.556-1.423.425-1.722-.146-.319-.569-.855-1.799-.855h-10.775c-1.62 0-3.736.93-4.817 2.12l-6.759 7.421-.263.326c-.761.865-1.239 1.979-1.239 3.209 0 2.719 2.239 4.925 4.992 4.925h8.532c1.565 0 3.964-.116 5.049-1.306l6.756-7.42c.704-.767.858-1.564.445-2.088-.016-.021-1.309-2.618-.547-4.609zm-21.947 9.705h10.244c1.615 0 3.728-.931 4.813-2.12l5.229-5.725c-.227.492-.148 1.072-.14 1.072.163.825.506 2.064.688 2.4l-.133.164-6.756 7.421c-.747.823-2.639.715-3.701.715h-8.532c-1.751 0-3.173-1.403-3.173-3.135l.004-.218.08-.575h1.377zm0 0" fill="#206FAC" sketch:type="MSShapeGroup"/></g></svg>
